src/svg/icon-medium.svg

<svg fill="none" height="26" viewBox="0 0 26 26" width="26" xmlns="http://www.w3.org/2000/svg"><path d="m18.6665 1h-11.34352c-3.47658 0-6.32298 2.90941-6.32298 6.45952v11.08098c0 3.5501 2.8464 6.4595 6.32298 6.4595h11.34352c3.4766 0 6.323-2.9094 6.323-6.4595v-11.08098c0-3.55011-2.8464-6.45952-6.323-6.45952z" stroke="#1300ed" stroke-miterlimit="10" stroke-width="1.5"/><path clip-rule="evenodd" d="m8.49373 10.0401c.01574-.15483-.04356-.30756-.15903-.41148l-1.17567-1.4171v-.21152h3.65187l2.8227 6.1906 2.4815-6.1906h3.4813v.21152l-1.0056.96415c-.0866.06613-.1296.17477-.1118.28237v7.08446c-.0178.1071.0252.2157.1118.2818l.982.9642v.2115h-4.9399v-.2115l1.0177-.9878c.0997-.0997.0997-.1291.0997-.2818v-5.7262l-2.8284 7.1842h-.3821l-3.29343-7.1842v4.815c-.0273.2021.03988.4063.18212.5522l1.32311 1.605v.212h-3.7516v-.212l1.32315-1.605c.14171-.1465.20469-.3517.17058-.5522z" fill="#1300ed" fill-rule="evenodd"/></svg>

<svg width="26" height="26" viewBox="0 0 26 26" fill="none" xmlns="http://www.w3.org/2000/svg">
<path d="M18.6665 1H7.32298C3.8464 1 1 3.90941 1 7.45952V18.5405C1 22.0906 3.8464 25 7.32298 25H18.6665C22.1431 25 24.9895 22.0906 24.9895 18.5405V7.45952C24.9895 3.90941 22.1431 1 18.6665 1Z" stroke="#1300ED" stroke-width="1.5" stroke-miterlimit="10"/>
<path fill-rule="evenodd" clip-rule="evenodd" d="M8.49373 10.0401C8.50947 9.88527 8.45017 9.73254 8.3347 9.62862L7.15903 8.21152V8H10.8109L13.6336 14.1906L16.1151 8H19.5964V8.21152L18.5908 9.17567C18.5042 9.2418 18.4612 9.35044 18.479 9.45804V16.5425C18.4612 16.6496 18.5042 16.7582 18.5908 16.8243L19.5728 17.7885V18H14.6329V17.7885L15.6506 16.8007C15.7503 16.701 15.7503 16.6716 15.7503 16.5189V10.7927L12.9219 17.9769H12.5398L9.24637 10.7927V15.6077C9.21907 15.8098 9.28625 16.014 9.42849 16.1599L10.7516 17.7649V17.9769H7V17.7649L8.32315 16.1599C8.46486 16.0134 8.52784 15.8082 8.49373 15.6077V10.0401Z" fill="#1300ED"/>
</svg>
